icon/pk/dianziqian.svg

<svg viewBox="0 0 48 48" fill="none" xmlns="http://www.w3.org/2000/svg" height="1em" width="1em">
  <path d="M33 8L24 13L34 19V29.2143L14 18V29L34 41L43 35.1071V13.8929L33 8Z" stroke="black" stroke-width="4" stroke-linecap="round" stroke-linejoin="round"/>
  <path d="M24 35L15 41L5 35L5.00069 14L15 8L24 13" stroke="black" stroke-width="4" stroke-linecap="round" stroke-linejoin="round"/>
</svg>

<svg width="48" height="48" fill="none" xmlns="http://www.w3.org/2000/svg"><path d="m33 8-9 5 10 6v10.214L14 18v11l20 12 9-5.893V13.893L33 8Z" stroke="#000" stroke-width="4" stroke-linecap="round" stroke-linejoin="round"/><path d="m24 35-9 6-10-6V14l10-6 9 5" stroke="#000" stroke-width="4" stroke-linecap="round" stroke-linejoin="round"/></svg>
